X:7792
T:Untitled Reel
O:england
M:4/4
L:1/8
Q:240
S:"Teddy Boy" Houle
R:reel
K:A
EA | A2 cA BAcA | EDAc eaga | f2 ec d2 Bd | c2 Ac BcBA |
GEFG A2 (3cBA | E2 Ac eaga | f2 ec d2 Bd | ceaf ecBc | A2 :||
(3efg | a2 ga faae | cAce aece | ebgb ebgb | ebbe gefg |
a2 ga faae | cAce aece | defe ceaf | ecBc A2 :||


